images/charts.svg

<svg xmlns="http://www.w3.org/2000/svg" width="641.51274" height="626.39159" viewBox="0 0 641.51274 626.39159" xmlns:xlink="http://www.w3.org/1999/xlink"><g><path d="M198.10146,459.50579H117.74436c-2.02587,0-3.67427-1.64844-3.67427-3.67429s1.64841-3.67352,3.67427-3.67352h80.35711c2.02586,0,3.67351,1.64764,3.67351,3.67352s-1.64764,3.67429-3.67351,3.67429h-.00002Z" fill="#13ae85"/><path d="M54.5875,479.17299c0,.66003,.53003,1.19,1.19006,1.19h204.29c.65997,0,1.19-.52997,1.19-1.19,0-.65997-.53003-1.19-1.19-1.19H55.77756c-.66003,0-1.19006,.53003-1.19006,1.19Z" fill="#3f3d56"/></g><circle cx="485.60718" cy="174.40329" r="65" fill="#ff6884"/><path d="M0,561.30846c0,.66003,.53003,1.19,1.19006,1.19H523.48004c.65997,0,1.19-.52997,1.19-1.19,0-.65997-.53003-1.19-1.19-1.19H1.19006c-.66003,0-1.19006,.53003-1.19006,1.19Z" fill="#3f3d56"/><g><path d="M7.55489,480.94674l-1.67075-1.83057,163.0638-148.79639,58.74879,26.33618,63.44026-108.79395,52.12207-25.12366,48.29266,80.48737c26.07251-67.49872,91.45966-138.11798,169.81033-209.76619l1.92743,1.56058c-73.48529,70.35442-136.3587,141.02824-172.04047,212.52049l-44.66876-74.66707c-2.11026-3.52744-6.5448-4.88992-10.27161-3.15582l-.00006,.00003c-28.49045,13.25661-52.25458,34.89546-68.11469,62.02293l-39.7393,67.97107-9.0714-4.06644c-30.33815-13.5997-65.85408-7.89978-90.41309,14.51025L7.55489,480.94674Z" fill="#3f3d56"/><polygon points="565.03815 107.00612 562.5625 107.17803 558.56775 98.52049 549.62372 96.70378 549.27637 94.24652 564.01953 92.15139 565.03815 107.00612" fill="#3f3d56"/></g><polygon points="310.6843 159.98014 319.44968 126.28289 353.59686 124.64036 363.8132 171.09089 310.6843 159.98014" fill="#ffb6b6"/><polygon points="310.6843 159.98014 319.44968 126.28289 353.59686 124.64036 363.8132 171.09089 310.6843 159.98014" isolation="isolate" opacity=".1"/><circle cx="333.15384" cy="103.92448" r="41.21628" fill="#ffb6b6"/><path d="M355.89438,112.64867h-.00006s-15.65744-31.02253-34.00266-29.23145c-18.34528,1.79106-28.00998,3.96931-28.00998,3.96931,0,0-5.44562-24.16184,20.1925-33.45562,0,0-32.59821-32.13389,6.21277-47.89698,38.811-15.7631,60.52856,4.34073,60.52856,4.34073,0,0,28.72815,28.67943-7.45398,50.11471,0,0,26.86676,36.13874-5.66187,65.92528,0,0,7.2756-24.1039-.31577-19.65871-7.5914,4.44517-11.4895,5.89272-11.4895,5.89272v.00002l-.00003-.00002Z" fill="#2f2e41"/><polygon points="287.67856 330.41161 282.19592 335.66613 242.58878 420.59115 238.25323 561.0631 304.79889 561.0631 336.01489 491.49968 357.04745 560.39159 416.88153 560.39159 430.75189 435.33205 393.46613 346.88671 287.67856 330.41161" fill="#2f2e41"/><path d="M356.61389,156.55581h-44.44116l-48.33972,26.01334,11.27243,50.29243s-2.60132,30.34889,3.46844,52.89375c6.06979,22.54489,3.46844,52.02667,3.46844,52.02667l111.42377,9.10468,3.46844-102.31909-1.73422-68.50177-38.58643-19.50999h0v-.00002Z" fill="#e6e6e6"/><path d="M271.20346,183.00271s-26.88043,.86711-31.216,18.20934-7.80399,106.65465-7.80399,106.65465c0,0,2.60132,52.99619,31.64954,27.79877,29.04822-25.19742,26.4469-101.5032,26.4469-101.5032l-19.07645-51.15955v0Z" fill="#e6e6e6"/><path d="M531.92712,625.39159h-158.40878c-5.36478,0-9.72961-4.36426-9.72961-9.72961v-163.75797c0-5.36533,4.36484-9.72961,9.72961-9.72961h158.40878c5.36536,0,9.72961,4.36429,9.72961,9.72961v163.75797c0,5.36536-4.36426,9.72961-9.72961,9.72961Z" fill="#fff"/><path d="M531.92712,626.39159h-158.40918c-5.91602,0-10.72949-4.81299-10.72949-10.72949v-163.7583c0-5.91602,4.81348-10.72949,10.72949-10.72949h158.40918c5.91602,0,10.72949,4.81348,10.72949,10.72949v163.7583c0,5.9165-4.81348,10.72949-10.72949,10.72949Zm-158.40918-183.21729c-4.81348,0-8.72949,3.91602-8.72949,8.72949v163.7583c0,4.81348,3.91602,8.72949,8.72949,8.72949h158.40918c4.81348,0,8.72949-3.91602,8.72949-8.72949v-163.7583c0-4.81348-3.91602-8.72949-8.72949-8.72949h-158.40918Z" fill="#3f3d56"/><g><path d="M458.974,582.37066h-13.05609c-1.58966,0-2.88275-.99817-2.88275-2.22522v-56.21143c0-1.22705,1.29309-2.22522,2.88275-2.22522h13.05609c1.58966,0,2.88275,.99817,2.88275,2.22522v56.21143c0,1.22705-1.29309,2.22522-2.88275,2.22522Z" fill="#13ae85"/><path d="M415.80945,549.24474c-1.28421,0-2.32919,.80664-2.32919,1.79791v29.04004c0,.99127,1.04498,1.79791,2.32919,1.79791h13.05612c1.28421,0,2.32919-.80664,2.32919-1.79791v-29.04004c0-.99127-1.04498-1.79791-2.32919-1.79791h-13.05612Z" fill="#13ae85"/><path d="M489.0824,582.37066h-13.05609c-1.58966,0-2.88275-.99817-2.88275-2.22522v-92.12048c0-1.22705,1.29309-2.22519,2.88275-2.22519h13.05609c1.58966,0,2.88275,.99817,2.88275,2.22519v92.12048c0,1.22705-1.29309,2.22522-2.88275,2.22522Z" fill="#13ae85"/></g><g><path d="M208.12485,178.57206h-14.91385c-1.81583,0-3.29295-1.14018-3.29295-2.54182V111.8206c0-1.40163,1.47713-2.54182,3.29295-2.54182h14.91385c1.81583,0,3.29295,1.14018,3.29295,2.54182v64.20965c0,1.40163-1.47713,2.54182-3.29295,2.54182v-.00002Z" fill="#13ae85"/><path d="M158.81854,140.73272c-1.46693,0-2.66061,.92139-2.66061,2.05371v33.17207c0,1.13232,1.19368,2.05371,2.66061,2.05371h14.91385c1.46693,0,2.66061-.92139,2.66061-2.05371v-33.17207c0-1.13232-1.19368-2.05371-2.66061-2.05371h-14.91385Z" fill="#13ae85"/><path d="M242.5173,178.57206h-14.91385c-1.81583,0-3.29295-1.14018-3.29295-2.54182V70.80214c0-1.40163,1.47713-2.54182,3.29295-2.54182h14.91385c1.81583,0,3.29294,1.14018,3.29294,2.54182v105.22811c0,1.40163-1.47711,2.54182-3.29294,2.54182v-.00002Z" fill="#13ae85"/></g><path d="M428.4375,466.00084c7.72461-.73965,13.04395-11.17798,11.88171-23.3201-.39771-4.85672-1.95276-9.54749-4.53497-13.67993l-1.48889-13.74216,.22809-.06839,3.74231-65.15799c.87012-15.15002-5.12701-30.0369-16.68127-39.8746-6.87335-5.85223-14.20575-8.81528-18.92081-1.42099-7.82382,12.26947,2.31027,62.84671,8.96533,91.60162l2.58023,30.72778c-1.75278,4.54852-2.3905,9.45065-1.85977,14.29608,1.16016,12.13803,8.36346,21.37817,16.08804,20.63867Z" fill="#ffb6b6"/><path d="M385.66211,177.80004s22.54489-8.67111,32.95023,17.34222,21.67776,154.34576,21.67776,154.34576l-52.89377-9.53821-1.73422-162.14977v-.00002Z" fill="#e6e6e6"/><g><path d="M76.09184,165.07636h-30.3571c-2.02587,0-3.67427-1.64844-3.67427-3.67429s1.64841-3.67352,3.67427-3.67352h30.3571c2.02586,0,3.67351,1.64764,3.67351,3.67352s-1.64764,3.67429-3.67351,3.67429Z" fill="#e6e6e6"/><path d="M76.09184,112.99718h-30.3571c-2.02587,0-3.67427-1.64844-3.67427-3.67429s1.64841-3.67352,3.67427-3.67352h30.3571c2.02586,0,3.67351,1.64764,3.67351,3.67352s-1.64764,3.67429-3.67351,3.67429Z" fill="#e6e6e6"/><path d="M76.09184,75.44008h-30.3571c-2.02587,0-3.67427-1.64844-3.67427-3.67429s1.64841-3.67352,3.67427-3.67352h30.3571c2.02586,0,3.67351,1.64764,3.67351,3.67352s-1.64764,3.67429-3.67351,3.67429Z" fill="#e6e6e6"/><path d="M40.84269,178.75373c0,.66003,.53003,1.19,1.19006,1.19H246.32274c.65997,0,1.19-.52997,1.19-1.19,0-.65997-.53003-1.19-1.19-1.19H42.03275c-.66003,0-1.19006,.53003-1.19006,1.19Z" fill="#3f3d56"/></g><path d="M434.84269,486.75373c0,.66003,.53003,1.19,1.19006,1.19h204.28999c.65997,0,1.19-.52997,1.19-1.19,0-.65997-.53003-1.19-1.19-1.19h-204.28999c-.66003,0-1.19006,.53003-1.19006,1.19Z" fill="#3f3d56"/><path d="M374.84269,583.75373c0,.66003,.53003,1.19,1.19006,1.19h204.28999c.65997,0,1.19-.52997,1.19-1.19,0-.65997-.53003-1.19-1.19-1.19h-204.28999c-.66003,0-1.19006,.53003-1.19006,1.19Z" fill="#3f3d56"/><path d="M237.46713,172.73761c-7.72461,.73964-13.04395,11.17796-11.88174,23.32008,.39774,4.85674,1.95276,9.54749,4.53497,13.67993l1.48889,13.74216-.22806,.06839-3.74228,65.15799c-.87012,15.15002,5.12704,30.0369,16.68127,39.8746,6.87335,5.85223,14.20575,8.81528,18.92081,1.42099,7.82382-12.26947-2.31027-62.84671-8.96533-91.60161l-2.58023-30.72778c1.75278-4.54852,2.3905-9.45065,1.85977-14.2961-1.16016-12.13803-8.36346-21.37819-16.08804-20.63866h-.00003v0Z" fill="#ffb6b6"/></svg>

<svg width="642" height="627" viewBox="0 0 642 627" fill="none" xmlns="http://www.w3.org/2000/svg">
<g clip-path="url(#clip0_11_391)">
<path d="M198.101 459.506H117.744C115.718 459.506 114.07 457.857 114.07 455.832C114.07 453.806 115.718 452.158 117.744 452.158H198.101C200.127 452.158 201.775 453.806 201.775 455.832C201.775 457.857 200.127 459.506 198.101 459.506Z" fill="#13AE85"/>
<path d="M54.5875 479.173C54.5875 479.833 55.1175 480.363 55.7776 480.363H260.068C260.728 480.363 261.258 479.833 261.258 479.173C261.258 478.513 260.728 477.983 260.068 477.983H55.7776C55.1175 477.983 54.5875 478.513 54.5875 479.173Z" fill="#3F3D56"/>
<path d="M485.607 239.403C521.506 239.403 550.607 210.302 550.607 174.403C550.607 138.505 521.506 109.403 485.607 109.403C449.709 109.403 420.607 138.505 420.607 174.403C420.607 210.302 449.709 239.403 485.607 239.403Z" fill="#FE6332"/>
<path d="M0 561.308C0 561.969 0.53003 562.498 1.19006 562.498H523.48C524.14 562.498 524.67 561.969 524.67 561.308C524.67 560.649 524.14 560.118 523.48 560.118H1.19006C0.53003 560.118 0 560.649 0 561.308Z" fill="#3F3D56"/>
<path d="M7.55491 480.947L5.88416 479.116L168.948 330.32L227.697 356.656L291.137 247.862L343.259 222.738L391.552 303.226C417.624 235.727 483.011 165.108 561.362 93.4595L563.289 95.0201C489.804 165.375 426.931 236.048 391.249 307.541L346.58 232.874C344.47 229.346 340.035 227.984 336.309 229.718C307.818 242.974 284.054 264.613 268.194 291.741L228.455 359.712L219.383 355.645C189.045 342.046 153.529 347.746 128.97 370.156L7.55491 480.947Z" fill="#3F3D56"/>
<path d="M565.038 107.006L562.562 107.178L558.568 98.5205L549.624 96.7038L549.276 94.2465L564.02 92.1514L565.038 107.006Z" fill="#3F3D56"/>
<path d="M310.684 159.98L319.45 126.283L353.597 124.64L363.813 171.091L310.684 159.98Z" fill="#FFB6B6"/>
<path opacity="0.1" d="M310.684 159.98L319.45 126.283L353.597 124.64L363.813 171.091L310.684 159.98Z" fill="black"/>
<path d="M333.154 145.141C355.917 145.141 374.37 126.688 374.37 103.924C374.37 81.1613 355.917 62.7082 333.154 62.7082C310.391 62.7082 291.938 81.1613 291.938 103.924C291.938 126.688 310.391 145.141 333.154 145.141Z" fill="#FFB6B6"/>
<path d="M355.894 112.649C355.894 112.649 340.237 81.6261 321.892 83.4172C303.546 85.2083 293.882 87.3865 293.882 87.3865C293.882 87.3865 288.436 63.2247 314.074 53.9309C314.074 53.9309 281.476 21.797 320.287 6.03393C359.098 -9.72917 380.816 10.3747 380.816 10.3747C380.816 10.3747 409.544 39.0541 373.362 60.4894C373.362 60.4894 400.228 96.6281 367.7 126.415C367.7 126.415 374.975 102.311 367.384 106.756C359.792 111.201 355.894 112.649 355.894 112.649Z" fill="#2F2E41"/>
<path d="M287.679 330.412L282.196 335.666L242.589 420.591L238.253 561.063H304.799L336.015 491.5L357.047 560.392H416.882L430.752 435.332L393.466 346.887L287.679 330.412Z" fill="#2F2E41"/>
<path d="M356.614 156.556H312.173L263.833 182.569L275.105 232.862C275.105 232.862 272.504 263.21 278.574 285.755C284.644 308.3 282.042 337.782 282.042 337.782L393.466 346.887L396.935 244.568L395.2 176.066L356.614 156.556Z" fill="#E6E6E6"/>
<path d="M271.203 183.003C271.203 183.003 244.323 183.87 239.987 201.212C235.652 218.554 232.183 307.867 232.183 307.867C232.183 307.867 234.785 360.863 263.833 335.665C292.881 310.468 290.28 234.162 290.28 234.162L271.203 183.003Z" fill="#E6E6E6"/>
<path d="M531.927 625.392H373.518C368.154 625.392 363.789 621.027 363.789 615.662V451.904C363.789 446.539 368.154 442.174 373.518 442.174H531.927C537.292 442.174 541.657 446.539 541.657 451.904V615.662C541.657 621.027 537.292 625.392 531.927 625.392Z" fill="white"/>
<path d="M531.927 626.392H373.518C367.602 626.392 362.788 621.579 362.788 615.662V451.904C362.788 445.988 367.602 441.174 373.518 441.174H531.927C537.843 441.174 542.657 445.988 542.657 451.904V615.662C542.657 621.579 537.843 626.392 531.927 626.392ZM373.518 443.174C368.704 443.174 364.788 447.09 364.788 451.904V615.662C364.788 620.476 368.704 624.392 373.518 624.392H531.927C536.741 624.392 540.657 620.476 540.657 615.662V451.904C540.657 447.09 536.741 443.174 531.927 443.174H373.518Z" fill="#3F3D56"/>
<path d="M458.974 582.371H445.918C444.328 582.371 443.035 581.372 443.035 580.145V523.934C443.035 522.707 444.328 521.709 445.918 521.709H458.974C460.564 521.709 461.857 522.707 461.857 523.934V580.145C461.857 581.372 460.564 582.371 458.974 582.371Z" fill="#13AE85"/>
<path d="M415.809 549.245C414.525 549.245 413.48 550.051 413.48 551.043V580.083C413.48 581.074 414.525 581.881 415.809 581.881H428.866C430.15 581.881 431.195 581.074 431.195 580.083V551.043C431.195 550.051 430.15 549.245 428.866 549.245H415.809Z" fill="#13AE85"/>
<path d="M489.082 582.371H476.026C474.437 582.371 473.144 581.372 473.144 580.145V488.025C473.144 486.798 474.437 485.8 476.026 485.8H489.082C490.672 485.8 491.965 486.798 491.965 488.025V580.145C491.965 581.372 490.672 582.371 489.082 582.371Z" fill="#13AE85"/>
<path d="M208.125 178.572H193.211C191.395 178.572 189.918 177.432 189.918 176.03V111.821C189.918 110.419 191.395 109.279 193.211 109.279H208.125C209.941 109.279 211.418 110.419 211.418 111.821V176.03C211.418 177.432 209.941 178.572 208.125 178.572Z" fill="#748EFE"/>
<path d="M158.819 140.733C157.352 140.733 156.158 141.654 156.158 142.786V175.958C156.158 177.091 157.352 178.012 158.819 178.012H173.732C175.199 178.012 176.393 177.091 176.393 175.958V142.786C176.393 141.654 175.199 140.733 173.732 140.733H158.819Z" fill="#748EFE"/>
<path d="M242.517 178.572H227.603C225.788 178.572 224.311 177.432 224.311 176.03V70.8021C224.311 69.4005 225.788 68.2603 227.603 68.2603H242.517C244.333 68.2603 245.81 69.4005 245.81 70.8021V176.03C245.81 177.432 244.333 178.572 242.517 178.572Z" fill="#748EFE"/>
<path d="M428.438 466.001C436.162 465.261 441.481 454.823 440.319 442.681C439.922 437.824 438.366 433.133 435.784 429.001L434.295 415.259L434.523 415.19L438.266 350.032C439.136 334.882 433.139 319.995 421.584 310.158C414.711 304.305 407.379 301.342 402.664 308.737C394.84 321.006 404.974 371.583 411.629 400.338L414.209 431.066C412.456 435.615 411.819 440.517 412.349 445.362C413.51 457.5 420.713 466.74 428.438 466.001Z" fill="#FFB6B6"/>
<path d="M385.662 177.8C385.662 177.8 408.207 169.129 418.612 195.142C429.018 221.156 440.29 349.488 440.29 349.488L387.396 339.95L385.662 177.8Z" fill="#E6E6E6"/>
<path d="M76.0918 165.076H45.7347C43.7089 165.076 42.0605 163.428 42.0605 161.402C42.0605 159.376 43.7089 157.729 45.7347 157.729H76.0918C78.1177 157.729 79.7653 159.376 79.7653 161.402C79.7653 163.428 78.1177 165.076 76.0918 165.076Z" fill="#E6E6E6"/>
<path d="M76.0918 112.997H45.7347C43.7089 112.997 42.0605 111.349 42.0605 109.323C42.0605 107.297 43.7089 105.649 45.7347 105.649H76.0918C78.1177 105.649 79.7653 107.297 79.7653 109.323C79.7653 111.349 78.1177 112.997 76.0918 112.997Z" fill="#E6E6E6"/>
<path d="M76.0918 75.4401H45.7347C43.7089 75.4401 42.0605 73.7917 42.0605 71.7658C42.0605 69.74 43.7089 68.0923 45.7347 68.0923H76.0918C78.1177 68.0923 79.7653 69.7399 79.7653 71.7658C79.7653 73.7917 78.1177 75.4401 76.0918 75.4401Z" fill="#E6E6E6"/>
<path d="M40.8427 178.754C40.8427 179.414 41.3727 179.944 42.0327 179.944H246.323C246.983 179.944 247.513 179.414 247.513 178.754C247.513 178.094 246.983 177.564 246.323 177.564H42.0327C41.3727 177.564 40.8427 178.094 40.8427 178.754Z" fill="#3F3D56"/>
<path d="M434.843 486.754C434.843 487.414 435.373 487.944 436.033 487.944H640.323C640.983 487.944 641.513 487.414 641.513 486.754C641.513 486.094 640.983 485.564 640.323 485.564H436.033C435.373 485.564 434.843 486.094 434.843 486.754Z" fill="#3F3D56"/>
<path d="M374.843 583.754C374.843 584.414 375.373 584.944 376.033 584.944H580.323C580.983 584.944 581.513 584.414 581.513 583.754C581.513 583.094 580.983 582.564 580.323 582.564H376.033C375.373 582.564 374.843 583.094 374.843 583.754Z" fill="#3F3D56"/>
<path d="M237.467 172.738C229.743 173.477 224.423 183.916 225.585 196.058C225.983 200.914 227.538 205.605 230.12 209.738L231.609 223.48L231.381 223.548L227.639 288.706C226.769 303.856 232.766 318.743 244.32 328.581C251.194 334.433 258.526 337.396 263.241 330.002C271.065 317.732 260.931 267.155 254.276 238.4L251.695 207.672C253.448 203.124 254.086 198.222 253.555 193.376C252.395 181.238 245.192 171.998 237.467 172.738Z" fill="#FFB6B6"/>
</g>
<defs>
<clipPath id="clip0_11_391">
<rect width="641.513" height="626.392" fill="white"/>
</clipPath>
</defs>
</svg>
